X:17343
T:The Whirly Breton
R:Reel
O:New Zealand
M:C
I:speed 450
C:Mark Fitzsimons
A:Auckland
K:D min
|:DFEG FAGF|DFEG FAGA|BGAF c2c2|BGAF GE ^C2|
DFEG FAGF|DFEG FAGA|BGAF GEFD|^CDEF D2D2:|   
|:dA^Fd A^FdA|cGEc GEc^c|dA^Fd A^FdA|cAGE D2D2:|
W:
W:
W:Copyright Mark Fitzsimons February 1998
W:markf@ihug.co.nz
 


